X: 13
T:Eglantine
M:3/4
L:1/4
C:Cliff Stapleton
R:32-bar waltz
K:D
A/2F/2|"D"DFA|"G"d>c d/2e/2|"D"f e/2f/2"A"e/2d/2|"A"A2 "D7"F|"G"GBd|"A"A
ce|"D"d>c "A"d/2e/2|fdA/2F/2|
|"D"DFA|"G"d>c d/2e/2|"D"fe/2f/2"A"e/2d/2|"A"A2 "D7"F|"G"GBd|"A"Ace|"D"d
>e "A"d/2c/2| "D"d2:|
d/2e/2|:"Bm"f e/2f/2e/2d/2|"Em"g f/2g/2f/2e/2|"D"f e/2f/2e/2d/2|"A"A2 "D
7"F|"G"GBd|
"A"Ace|"D"d>c "A"d/2e/2|"D"fd d/2e/2|"Bm"f e/2f/2e/2d/2|"Em"g f/2g/2f/2e
/2|
"D"f e/2f/2e/2d/2|"A"A2 "D7"F|"G"GBd|"A"Ace|"D"d>e "A"d/2c/2| "D"d2:|
